X: 19243
T: It's Only A Matter Of Time
R: reel
M: 4/4
K: Gminor
|:BGAF G d2 c|BG (3GGF GFDF|BGAF G2 Bc|d (3edc B c A (3AAF|
BGAF G d2 c|BG (3GGF GFDF|E (3^FED E =F^FGA|BdcA G2 z2:|
|:DE^FD EFDE|DEGD EGDE|DEAE DBED|AEDG ED^FE|DE^FD EFDE|
DEGD EGDG|1 E (3^FED E =F^FGA|BdcA G2 z2:|2 E (3^FED E ^FGFE|DCB,D G,2 z2||

